X: 41249
T: Trusty Man Casey
R: reel
M: 4/4
K: Dmajor
dAAd BcdB|Affc dAFA|dAAd BcdB|AFFE DEG=c|
dAAd BcdB|Affe defa|geag faaf|eAce fd d2|
dAAd BcdB|Affc dAFA|dAAd BcdB|AFFE DEG=c|
dAAd BcdB|Affe defa|geag fabf|eAce fd d2|
|:fabf eaac|dAGB dgef/g/|fabf eafe|dgfd ecdf|
fabf egae|dffd =cea^c|dAAd Bcdg|eAce fd d2:|

